client/src/assets/images/icon-next-steps.svg

<svg fill="none" height="78" viewBox="0 0 79 78" width="79" xmlns="http://www.w3.org/2000/svg"><g fill="#fff"><path d="m18.4829 2.40942c0-1.30329 1.0426-2.259031 2.259-2.259031 1.3033 0 2.2591 1.042631 2.2591 2.259031 0 18.94108 15.3787 34.40678 34.4067 34.40678 1.3033 0 2.259 1.0426 2.259 2.259s-1.0426 2.259-2.259 2.259c-10.4263 0-20.1575-4.0836-27.5428-11.382-7.3853-7.3853-11.382-17.1165-11.382-27.54278z"/><path d="m18.4829 75.7412c0-10.4263 4.0836-20.1575 11.382-27.5428s17.1165-11.382 27.5428-11.382c1.3033 0 2.259 1.0426 2.259 2.259s-1.0426 2.2591-2.259 2.2591c-18.9411 0-34.4067 15.3787-34.4067 34.4067 0 1.3033-1.0427 2.2591-2.2591 2.2591s-2.259-1.0427-2.259-2.2591z"/><path d="m27.6055 39.0754c0-1.3033 1.0427-2.259 2.2591-2.259h45.8756c1.3033 0 2.2591 1.0426 2.2591 2.259s-1.0427 2.2591-2.2591 2.2591h-45.7888c-1.3032 0-2.3459-.9558-2.3459-2.2591z"/><path d="m.149437 39.0754c0-1.3033 1.042633-2.259 2.259033-2.259h45.78883c1.3033 0 2.259 1.0426 2.259 2.259s-1.0426 2.2591-2.259 2.2591h-45.78883c-1.2164 0-2.259033-.9558-2.259033-2.2591z"/><path d="m64.4456 30.1257c0-.6082.2607-1.1295.6951-1.6508.8688-.8689 2.3459-.8689 3.2148 0l9.0361 8.9492c.4344.4344.6951 1.0427.6951 1.6509s-.2607 1.2164-.6951 1.6508l-8.9493 8.9492c-.8688.8689-2.3459.8689-3.2147 0-.8689-.8688-.8689-2.3459 0-3.2148l7.2984-7.3853-7.3853-7.3852c-.4344-.4345-.6951-.9558-.6951-1.564z"/></g></svg>

<svg width="79" height="78" viewBox="0 0 79 78" fill="none" xmlns="http://www.w3.org/2000/svg">
<path d="M18.4829 2.40942C18.4829 1.10613 19.5255 0.150389 20.7419 0.150389C22.0452 0.150389 23.001 1.19302 23.001 2.40942C23.001 21.3505 38.3797 36.8162 57.4077 36.8162C58.711 36.8162 59.6667 37.8588 59.6667 39.0752C59.6667 40.2916 58.6241 41.3342 57.4077 41.3342C46.9814 41.3342 37.2502 37.2506 29.8649 29.9522C22.4796 22.5669 18.4829 12.8357 18.4829 2.40942Z" fill="white"/>
<path d="M18.4829 75.7412C18.4829 65.3149 22.5665 55.5837 29.8649 48.1984C37.1633 40.8131 46.9814 36.8164 57.4077 36.8164C58.711 36.8164 59.6667 37.859 59.6667 39.0754C59.6667 40.2918 58.6241 41.3345 57.4077 41.3345C38.4666 41.3345 23.001 56.7132 23.001 75.7412C23.001 77.0445 21.9583 78.0003 20.7419 78.0003C19.5255 78.0003 18.4829 76.9576 18.4829 75.7412Z" fill="white"/>
<path d="M27.6055 39.0754C27.6055 37.7721 28.6482 36.8164 29.8646 36.8164L75.7402 36.8164C77.0435 36.8164 77.9993 37.859 77.9993 39.0754C77.9993 40.2918 76.9566 41.3345 75.7402 41.3345L29.9514 41.3345C28.6482 41.3345 27.6055 40.3787 27.6055 39.0754Z" fill="white"/>
<path d="M0.149437 39.0754C0.149437 37.7721 1.19207 36.8164 2.40847 36.8164L48.1973 36.8164C49.5006 36.8164 50.4563 37.859 50.4563 39.0754C50.4563 40.2918 49.4137 41.3345 48.1973 41.3345L2.40847 41.3345C1.19207 41.3345 0.149437 40.3787 0.149437 39.0754Z" fill="white"/>
<path d="M64.4456 30.1257C64.4456 29.5175 64.7063 28.9962 65.1407 28.4749C66.0095 27.606 67.4866 27.606 68.3555 28.4749L77.3916 37.4241C77.826 37.8585 78.0867 38.4668 78.0867 39.075C78.0867 39.6832 77.826 40.2914 77.3916 40.7258L68.4423 49.675C67.5735 50.5439 66.0964 50.5439 65.2276 49.675C64.3587 48.8062 64.3587 47.3291 65.2276 46.4602L72.526 39.0749L65.1407 31.6897C64.7063 31.2552 64.4456 30.7339 64.4456 30.1257Z" fill="white"/>
</svg>
